images_sukapura_svg/cmd/32/zoomoptimal.svg

<svg viewBox="0 0 32 32" xmlns="http://www.w3.org/2000/svg"><path d="m13 3a10 10 0 0 0 -10 10 10 10 0 0 0 10 10 10 10 0 0 0 6.296875-2.242188l7.322266 7.320313c.391737.391737 1.022325.391737 1.414062 0l.707031-.707031c.391738-.391737.391738-1.022326 0-1.414063l-7.421875-7.419922a10 10 0 0 0 1.681641-5.537109 10 10 0 0 0 -10-10zm.003906 2.0039062a8 8 0 0 1 8 7.9999998 8 8 0 0 1 -8 8 8 8 0 0 1 -7.9999998-8 8 8 0 0 1 7.9999998-7.9999998zm7.470703 14.6210938c-.039771.04485-.078569.090639-.11914.134766a10 10 0 0 0 .11914-.134766zm-.544921.568359c-.057149.055035-.115359.108426-.173829.16211a10 10 0 0 0 .173829-.16211z" fill="#69696e"/><path d="m13 3c.262078.00143.523999.013153.785156.035156-.261157-.0220028-.523078-.0337306-.785156-.035156zm.794922.035156-1.740234 2.03125c-.06391.00834-.127717.017459-.191407.027344.377577-.057133.75876-.087158 1.140625-.089844 2.942591.00286 5.646075 1.6208971 7.039063 4.2128907l.55664-.4160157c.631661-.4743886.489835-1.4594101-.25-1.7363281l.388672-.3886717c-1.722443-2.1080309-4.22985-3.4227447-6.943359-3.640625zm6.980469 3.6914063c-13.8502607 16.8489585-6.92513 8.4244795 0 0zm.05664 4.6738285c.0073.03121.01451.06246.02148.09375-.007-.03129-.01414-.06254-.02148-.09375z" fill="#fff" fill-opacity=".784314"/><path d="m16 2h8l-6 6h2l-12 9 5-8h-3z" fill="#ff9500" fill-rule="evenodd"/></svg>

<?xml version="1.0" encoding="UTF-8" standalone="no"?>
<svg
   xmlns:dc="http://purl.org/dc/elements/1.1/"
   xmlns:cc="http://creativecommons.org/ns#"
   xmlns:rdf="http://www.w3.org/1999/02/22-rdf-syntax-ns#"
   xmlns:svg="http://www.w3.org/2000/svg"
   xmlns="http://www.w3.org/2000/svg"
   xmlns:sodipodi="http://sodipodi.sourceforge.net/DTD/sodipodi-0.dtd"
   xmlns:inkscape="http://www.inkscape.org/namespaces/inkscape"
   viewBox="0 0 32 32"
   version="1.1"
   id="svg12"
   sodipodi:docname="zoomoptimal.svg"
   inkscape:version="0.92.3 (unknown)"
   inkscape:export-filename="/home/rizmut/Dokumen/Rizmut/Github/libreoffice-style-sukapura/images_sukapura/cmd/32/zoomprevious.png"
   inkscape:export-xdpi="96"
   inkscape:export-ydpi="96">
  <metadata
     id="metadata18">
    <rdf:RDF>
      <cc:Work
         rdf:about="">
        <dc:format>image/svg+xml</dc:format>
        <dc:type
           rdf:resource="http://purl.org/dc/dcmitype/StillImage" />
        <dc:title></dc:title>
      </cc:Work>
    </rdf:RDF>
  </metadata>
  <defs
     id="defs16">
    <linearGradient
       gradientTransform="translate(75,-7)"
       id="a-367"
       gradientUnits="userSpaceOnUse"
       x1="14"
       x2="13.79661"
       y1="22"
       y2="2.1355929">
      <stop
         offset="0"
         stop-color="#0040dd"
         id="stop2206" />
      <stop
         offset="1"
         stop-color="#0a84ff"
         id="stop2208" />
    </linearGradient>
  </defs>
  <sodipodi:namedview
     pagecolor="#ffffff"
     bordercolor="#666666"
     borderopacity="1"
     objecttolerance="10"
     gridtolerance="10"
     guidetolerance="10"
     inkscape:pageopacity="0"
     inkscape:pageshadow="2"
     inkscape:window-width="1350"
     inkscape:window-height="691"
     id="namedview14"
     showgrid="true"
     inkscape:snap-global="true"
     inkscape:zoom="5.6568545"
     inkscape:cx="21.774191"
     inkscape:cy="2.9285854"
     inkscape:window-x="4"
     inkscape:window-y="4"
     inkscape:window-maximized="0"
     inkscape:current-layer="svg12"
     inkscape:snap-smooth-nodes="true">
    <inkscape:grid
       type="xygrid"
       id="grid828"
       spacingx="0.5"
       spacingy="0.5"
       empspacing="2" />
  </sodipodi:namedview>
  <path
     style="opacity:1;fill:#69696e;fill-opacity:1;stroke:none;stroke-width:1;stroke-linecap:round;stroke-linejoin:round;stroke-miterlimit:4;stroke-dasharray:none;stroke-opacity:0"
     d="M 13 3 A 10 10 0 0 0 3 13 A 10 10 0 0 0 13 23 A 10 10 0 0 0 19.296875 20.757812 L 26.619141 28.078125 C 27.010878 28.469862 27.641466 28.469862 28.033203 28.078125 L 28.740234 27.371094 C 29.131972 26.979357 29.131972 26.348768 28.740234 25.957031 L 21.318359 18.537109 A 10 10 0 0 0 23 13 A 10 10 0 0 0 13 3 z M 13.003906 5.0039062 A 8 8 0 0 1 21.003906 13.003906 A 8 8 0 0 1 13.003906 21.003906 A 8 8 0 0 1 5.0039062 13.003906 A 8 8 0 0 1 13.003906 5.0039062 z M 20.474609 19.625 C 20.434838 19.66985 20.39604 19.715639 20.355469 19.759766 A 10 10 0 0 0 20.474609 19.625 z M 19.929688 20.193359 C 19.872539 20.248394 19.814329 20.301785 19.755859 20.355469 A 10 10 0 0 0 19.929688 20.193359 z "
     id="path856" />
  <path
     style="opacity:1;fill:#ffffff;fill-opacity:0.78431374;stroke:none;stroke-width:1;stroke-linecap:round;stroke-linejoin:round;stroke-miterlimit:4;stroke-dasharray:none;stroke-opacity:0"
     d="m 13,3 c 0.262078,0.00143 0.523999,0.013153 0.785156,0.035156 C 13.523999,3.0131532 13.262078,3.0014254 13,3 Z m 0.794922,0.035156 -1.740234,2.03125 c -0.06391,0.00834 -0.127717,0.017459 -0.191407,0.027344 0.377577,-0.057133 0.75876,-0.087158 1.140625,-0.089844 2.942591,0.00286 5.646075,1.6208971 7.039063,4.2128907 l 0.55664,-0.4160157 c 0.631661,-0.4743886 0.489835,-1.4594101 -0.25,-1.7363281 L 20.738281,6.6757812 C 19.015838,4.5677503 16.508431,3.2530365 13.794922,3.0351562 Z m 6.980469,3.6914063 c -13.8502607,16.8489585 -6.92513,8.4244795 0,0 z m 0.05664,4.6738285 c 0.0073,0.03121 0.01451,0.06246 0.02148,0.09375 -0.007,-0.03129 -0.01414,-0.06254 -0.02148,-0.09375 z"
     id="path830"
     inkscape:connector-curvature="0"
     sodipodi:nodetypes="ccccccccccccccccc" />
  <path
     inkscape:connector-curvature="0"
     style="fill:#ff9500;fill-rule:evenodd;fill-opacity:1"
     d="m 16,2 h 8 l -6,6 h 2 L 8,17 13,9 h -3 z"
     id="path8" />
</svg>
